X: 925
T: Star Of Munster
C:Traditional
B: jims roots
M:4/4
L:1/8
Q: 1/4=100
K:C
V:1 
ed |: "Am"c2 Ac "G"B2 BG | "Am"AGE^F "G"GED2 | "Am"EAAB cBcd |
"G"eaa^f gfed | "Am"cA (3AAA "G"BAGB | "Am"AGE^F "G"GEDB, |
"Am"EAAB cded | [1 c"G"ABG "Am"A2 ed:| [2 c"G"ABG "Am"A4||
|: "Am"eaab ageg | agbg age^f | "G"g^fga gedf |
gea^f gfed | "Am"eaab ageg | agbg age^f |
"G"g2 ge a2 ga |[1 b2 ba g^fed:|[2 b2 ba gabg | "Am"a8|]
% abcbook-tune_id 6298c287f09d27d742587fe3


% abcbook-boost 0
% abcbook-tablature 
% abcbook-transpose 
% abcbook-lastupdated 1654178440849
% abcbook-soundfonts 
% abcbook-repeats 1


